images/chat-icon.svg

<svg width="28" height="26" viewBox="0 0 28 26" fill="none" xmlns="http://www.w3.org/2000/svg">
<g clip-path="url(#clip0_3840_17583)">
<path d="M6.00115 20.998C5.49318 20.998 5.02644 20.9999 4.5597 20.998C1.98857 20.9874 0.00664259 19.0112 0.0035185 16.4445C-0.000855229 12.4782 -0.00148005 8.51133 0.0035185 4.54507C0.00726741 1.99524 1.99044 0.00648579 4.53845 0.00398657C10.8479 -0.00101187 17.1567 -0.00163667 23.4661 0.00398657C25.9991 0.00648579 27.9891 1.99087 27.9941 4.51945C28.0016 8.50695 28.0023 12.4945 27.9941 16.4813C27.9891 19.008 25.9972 20.9906 23.4642 20.9956C20.2058 21.0024 16.9467 20.9987 13.6883 20.9943C13.4702 20.9937 13.2997 21.0412 13.1253 21.1874C11.4127 22.6275 9.69133 24.0577 7.97183 25.4904C7.85999 25.5835 7.75002 25.6797 7.6338 25.7678C7.30765 26.0152 6.9515 26.0752 6.57849 25.8965C6.1961 25.7128 6.00303 25.3948 6.0024 24.9712C5.99928 23.7741 6.00115 22.5769 6.00115 21.3792C6.00115 21.2661 6.00115 21.153 6.00115 20.998ZM9.99874 10.5057C10.0031 9.40355 9.104 8.50258 7.99932 8.50196C6.90964 8.50133 6.0124 9.3898 6.00365 10.4776C5.9949 11.5835 6.88777 12.4932 7.98745 12.4976C9.09151 12.5026 9.99437 11.6091 9.99874 10.5057ZM14.0082 8.50196C12.9048 8.49696 12.0019 9.39543 12.0013 10.4982C12.0013 11.5891 12.8879 12.4882 13.9738 12.4976C15.0798 12.5076 15.987 11.6179 15.9964 10.5157C16.0064 9.41354 15.1116 8.50758 14.0082 8.50196ZM19.9771 12.4982C21.0824 12.5057 21.9878 11.6147 21.9953 10.512C22.0028 9.40917 21.1061 8.5057 20.0021 8.50196C18.9118 8.49883 18.0114 9.3848 18.0002 10.472C17.9883 11.5779 18.8787 12.4907 19.9771 12.4982Z" fill="#F8F8F8"/>
</g>
<defs>
<clipPath id="clip0_3840_17583">
<rect width="28" height="26" fill="white"/>
</clipPath>
</defs>
</svg>

<svg width="28" height="26" fill="none" xmlns="http://www.w3.org/2000/svg"><g clip-path="url(#clip0_3840_17583)"><path d="M6.001 20.998c-.508 0-.975.002-1.441 0-2.571-.01-4.553-1.987-4.556-4.553-.005-3.967-.005-7.934 0-11.9C.007 1.995 1.99.006 4.538.004c6.31-.005 12.619-.006 18.928 0C26 .006 27.99 1.991 27.994 4.519c.008 3.988.008 7.976 0 11.962-.005 2.527-1.997 4.51-4.53 4.515-3.258.006-6.517.003-9.776-.002a.8.8 0 00-.563.193c-1.712 1.44-3.434 2.87-5.153 4.303-.112.094-.222.19-.338.278-.326.247-.683.307-1.056.128-.382-.183-.575-.501-.576-.925-.003-1.197 0-2.394 0-3.592v-.381zM10 10.506a2.002 2.002 0 00-2-2.004 2 2 0 00-1.995 1.976 2.003 2.003 0 001.983 2.02A2.003 2.003 0 0010 10.506zm4.01-2.004A2.002 2.002 0 0012 10.498c0 1.091.887 1.99 1.973 2a2.004 2.004 0 002.022-1.982 2.001 2.001 0 00-1.988-2.014zm5.968 3.996a2.005 2.005 0 002.018-1.986 2.002 2.002 0 00-1.993-2.01A2.002 2.002 0 0018 10.472a2.003 2.003 0 001.977 2.026z" fill="#F8F8F8"/></g><defs><clipPath id="clip0_3840_17583"><path fill="#fff" d="M0 0h28v26H0z"/></clipPath></defs></svg>
